styles/2/Numix/32/places/brown-folder-rss.svg

<?xml version="1.0" encoding="UTF-8" standalone="no"?>
<!-- Created with Inkscape (http://www.inkscape.org/) -->

<svg
   xmlns:dc="http://purl.org/dc/elements/1.1/"
   xmlns:cc="http://creativecommons.org/ns#"
   xmlns:rdf="http://www.w3.org/1999/02/22-rdf-syntax-ns#"
   xmlns:svg="http://www.w3.org/2000/svg"
   xmlns="http://www.w3.org/2000/svg"
   xmlns:sodipodi="http://sodipodi.sourceforge.net/DTD/sodipodi-0.dtd"
   xmlns:inkscape="http://www.inkscape.org/namespaces/inkscape"
   width="32"
   height="32"
   id="svg2"
   version="1.1"
   inkscape:version="0.91 r"
   sodipodi:docname="brown-folder-rss.svg"
   inkscape:export-filename="/media/Data/Main/Visuals/Icons/Numix/Desktop/repos/numix-wiki/Gjorgi/Numix-folders/48/New/folder-144.png"
   inkscape:export-xdpi="270"
   inkscape:export-ydpi="270">
  <defs
     id="defs4" />
  <sodipodi:namedview
     id="base"
     pagecolor="#ffffff"
     bordercolor="#666666"
     borderopacity="1.0"
     inkscape:pageopacity="0.0"
     inkscape:pageshadow="2"
     inkscape:zoom="13.399674"
     inkscape:cx="10.708417"
     inkscape:cy="16.359489"
     inkscape:document-units="px"
     inkscape:current-layer="layer1"
     showgrid="true"
     inkscape:window-width="1280"
     inkscape:window-height="998"
     inkscape:window-x="0"
     inkscape:window-y="0"
     inkscape:window-maximized="1"
     showguides="true"
     inkscape:guide-bbox="true">
    <inkscape:grid
       type="xygrid"
       id="grid2985"
       empspacing="5"
       visible="true"
       enabled="true"
       snapvisiblegridlinesonly="true" />
  </sodipodi:namedview>
  <metadata
     id="metadata7">
    <rdf:RDF>
      <cc:Work
         rdf:about="">
        <dc:format>image/svg+xml</dc:format>
        <dc:type
           rdf:resource="http://purl.org/dc/dcmitype/StillImage" />
        <dc:title />
      </cc:Work>
    </rdf:RDF>
  </metadata>
  <g
     inkscape:label="Layer 1"
     inkscape:groupmode="layer"
     id="layer1"
     transform="translate(0,-1020.3622)">
    <path
       style="font-size:medium;font-style:normal;font-variant:normal;font-weight:normal;font-stretch:normal;text-indent:0;text-align:start;text-decoration:none;line-height:normal;letter-spacing:normal;word-spacing:normal;text-transform:none;direction:ltr;block-progression:tb;writing-mode:lr-tb;text-anchor:start;baseline-shift:baseline;color:#000000;fill:#8d6e63;fill-opacity:1;fill-rule:nonzero;stroke:none;stroke-width:1;marker:none;visibility:visible;display:inline;overflow:visible;enable-background:accumulate;font-family:Sans;-inkscape-font-specification:Sans"
       d="m 4,1024.3622 c -0.4916,0 -1,0.4731 -1,1 l 0,1 c -0.6666667,0 -0.8333333,0 -1.5,0 -0.9791617,0 -1.5,0.494 -1.5,1.5 l 0,19 c 0,1.0315 0.5230687,1.5 1.5,1.5 l 28.84375,0 c 0.871969,0 1.65625,-0.6232 1.65625,-1.5 l 0,-17 c 0,-0.9413 -0.425107,-1.5 -1.5,-1.5 l -2.5,0 0,-3 c 0,-0.5269 -0.508401,-1 -1,-1 z"
       id="path3004"
       inkscape:connector-curvature="0"
       sodipodi:nodetypes="ssccssssscccsss" />
    <path
       style="font-size:medium;font-style:normal;font-variant:normal;font-weight:normal;font-stretch:normal;text-indent:0;text-align:start;text-decoration:none;line-height:normal;letter-spacing:normal;word-spacing:normal;text-transform:none;direction:ltr;block-progression:tb;writing-mode:lr-tb;text-anchor:start;baseline-shift:baseline;color:#000000;fill:#000000;fill-opacity:0.32156863;fill-rule:nonzero;stroke:none;stroke-width:1;marker:none;visibility:visible;display:inline;overflow:visible;enable-background:accumulate;font-family:Sans;-inkscape-font-specification:Sans"
       d="m 4,1024.3622 c -0.4916,0 -1,0.4731 -1,1 l 0,1 c -0.6868035,0 -0.8835353,0 -1.5,0 -0.9791617,0 -1.5,0.483 -1.5,1.5 l 0,19 c 0,1.0038 0.5009716,1.5 1.5,1.5 l 28.84375,0 c 0.871969,0 1.65625,-0.6232 1.65625,-1.5 l 0,-16.9482 c 0,-1.014 -0.419084,-1.5518 -1.5,-1.5518 l -2.5,0 0,-3 c 0,-0.5269 -0.508401,-1 -1,-1 z m 15,3 0,2 12,0 0,18 -30,0 0,-20 z"
       id="path3784"
       inkscape:connector-curvature="0"
       sodipodi:nodetypes="ssccssssscccsssccccccc" />
    <path
       style="opacity:1;fill:#000000;fill-opacity:0.32156864000000002;fill-rule:nonzero;stroke:none"
       d="M 10 12 L 10 14 C 15.073325 14.5602 20.020089 18.9575 20 24 L 22 24 C 22 16.7968 15.531182 12.228 10 12 z M 10 16 L 10 18 C 12.749326 18.2261 15.96934 20.792 16 24 L 18 24 C 17.88042 19.1083 13.415086 16.3473 10 16 z M 11.5 21 C 10.671573 21 10 21.671573 10 22.5 C 10 23.328427 10.671573 24 11.5 24 C 12.328427 24 13 23.328427 13 22.5 C 13 21.671573 12.328427 21 11.5 21 z "
       transform="translate(0,1020.3622)"
       id="path3394" />
  </g>
</svg>

<!-- Created with Inkscape (http://www.inkscape.org/) -->
<svg xmlns="http://www.w3.org/2000/svg" viewBox="0 0 32 32">
 <g transform="translate(0,-1020.3622)">
  <path d="m 4 1024.36 c -0.492 0 -1 0.473 -1 1 l 0 1 c -0.667 0 -0.833 0 -1.5 0 -0.979 0 -1.5 0.494 -1.5 1.5 l 0 19 c 0 1.032 0.523 1.5 1.5 1.5 l 28.844 0 c 0.872 0 1.656 -0.623 1.656 -1.5 l 0 -17 c 0 -0.941 -0.425 -1.5 -1.5 -1.5 l -2.5 0 0 -3 c 0 -0.527 -0.508 -1 -1 -1 z" style="visibility:visible;fill:#8d6e63;fill-opacity:1;stroke:none;display:inline;color:#000;fill-rule:nonzero"/>
  <path d="m 4 1024.36 c -0.492 0 -1 0.473 -1 1 l 0 1 c -0.687 0 -0.884 0 -1.5 0 -0.979 0 -1.5 0.483 -1.5 1.5 l 0 19 c 0 1 0.501 1.5 1.5 1.5 l 28.844 0 c 0.872 0 1.656 -0.623 1.656 -1.5 l 0 -16.948 c 0 -1.014 -0.419 -1.552 -1.5 -1.552 l -2.5 0 0 -3 c 0 -0.527 -0.508 -1 -1 -1 z m 15 3 0 2 12 0 0 18 -30 0 0 -20 z" style="visibility:visible;fill:#000;fill-opacity:0.322;stroke:none;display:inline;color:#000;fill-rule:nonzero"/>
  <path d="m 10 12 l 0 2 c 5.073 0.56 10.02 4.958 10 10 l 2 0 c 0 -7.203 -6.469 -11.772 -12 -12 z m 0 4 l 0 2 c 2.749 0.226 5.969 2.792 6 6 l 2 0 c -0.12 -4.892 -4.585 -7.653 -8 -8 z m 1.5 5 c -0.828 0 -1.5 0.672 -1.5 1.5 c 0 0.828 0.672 1.5 1.5 1.5 c 0.828 0 1.5 -0.672 1.5 -1.5 c 0 -0.828 -0.672 -1.5 -1.5 -1.5 z" transform="translate(0,1020.3622)" style="fill:#000;opacity:1;fill-opacity:0.322;stroke:none;fill-rule:nonzero"/>
 </g>
</svg>
